public/assets/spaceone.svg

<svg viewBox="0 0 184 23" fill="none" xmlns="http://www.w3.org/2000/svg">
<path d="M37.9348 2.56713C37.0103 2.26983 35.9207 2.1377 34.6991 2.1377H28.7228H28.4256L28.3596 2.43499L23.1097 21.7923H26.6427L28.3926 15.3179H32.2227C33.6095 15.3179 34.9302 15.1527 36.0858 14.8554C37.2745 14.5251 38.298 14.0626 39.1565 13.435C40.048 12.8074 40.7414 12.0146 41.2036 11.0896C41.6659 10.1978 41.93 9.10766 41.93 7.91848C41.93 6.33289 41.4347 5.04461 40.4112 4.02058C39.7508 3.35992 38.8924 2.86443 37.9348 2.56713ZM37.0103 11.0236C35.9537 11.7503 34.4019 12.1467 32.3548 12.1467H29.2511L31.0671 5.40796H34.633C36.1188 5.40796 37.1754 5.7383 37.8028 6.36593C38.232 6.79536 38.4631 7.35691 38.4631 8.08364C38.4631 9.37193 38.0009 10.3299 37.0103 11.0236Z" fill="white"/>
<path d="M14.7558 2.1377C13.7323 2.1377 12.7748 2.26983 11.8833 2.56713C11.0248 2.86443 10.2324 3.26082 9.60502 3.75631C8.94466 4.28484 8.41637 4.91247 8.05318 5.6392C7.68998 6.36592 7.49187 7.15872 7.49187 7.98455C7.49187 8.64521 7.62395 9.27283 7.85507 9.80136C8.0862 10.3299 8.44939 10.8254 8.94466 11.2548C9.40691 11.6512 9.9352 12.0476 10.5956 12.3779C11.2229 12.7083 11.9823 13.0386 12.8078 13.3689C13.3361 13.5671 13.6993 13.7653 14.0625 13.9635C14.1615 14.0296 14.2606 14.0626 14.3596 14.0957C14.7889 14.3269 15.119 14.5251 15.3502 14.7563C15.5483 14.9545 15.7134 15.1527 15.8124 15.3509C15.9115 15.5491 15.9445 15.7803 15.9445 16.0116C15.9445 16.408 15.8784 16.7383 15.7134 17.0356C15.5152 17.3659 15.2841 17.6302 14.9539 17.8614C14.6238 18.0926 14.0955 18.3569 13.7323 18.456C13.0059 18.6542 11.9493 18.6542 11.1899 18.6542C11.0578 18.6542 4.15705 18.6212 4.15705 18.6212L3.29858 21.7263H12.1144C13.171 21.7263 14.1285 21.5942 14.987 21.3299C15.8454 21.0656 16.6379 20.6362 17.3312 20.1077C17.9916 19.5791 18.5529 18.9185 18.9491 18.1917C19.3453 17.432 19.5434 16.6392 19.5434 15.7473C19.5434 15.0866 19.4114 14.459 19.1802 13.9305C18.9491 13.402 18.6189 12.9065 18.1567 12.477C17.7275 12.0476 17.1992 11.6842 16.5718 11.3209C15.9775 10.9906 15.2511 10.6602 14.4917 10.3629C13.9964 10.1647 13.6002 9.96653 13.204 9.80136C13.0719 9.7353 12.9729 9.66923 12.8408 9.6362C12.3785 9.40497 12.0153 9.20677 11.7182 8.97554C11.4871 8.77734 11.2889 8.57913 11.1899 8.38094C11.0908 8.18274 11.0578 7.95151 11.0578 7.72028C11.0578 7.42298 11.1239 7.12569 11.2889 6.86142C11.454 6.56413 11.6521 6.29985 11.9493 6.06862C12.2465 5.83739 12.6427 5.6392 13.0719 5.47403C13.5342 5.30887 14.0955 5.2428 14.6568 5.2428H21.9868L22.8452 2.1377H14.7558V2.1377Z" fill="white"/>
<path d="M79.2738 16.0116C78.0191 17.6963 76.0381 18.7203 73.9909 18.7203C72.274 18.7203 70.8872 18.2248 69.9958 17.2668C69.1373 16.3419 68.7081 15.0206 68.8071 13.435C69.0382 8.71127 72.208 5.30887 76.3352 5.30887C78.5144 5.30887 80.4295 6.46503 81.2879 8.31488L81.486 8.7443L84.1275 7.15872L84.4246 6.96052L84.2926 6.63019C83.0379 3.85541 80.2314 2.17073 76.7314 2.1377H76.6324C70.425 2.1377 65.6704 6.89445 65.3402 13.402C65.2082 15.8134 65.9015 17.8614 67.3543 19.3809C68.8731 20.9996 71.1184 21.8584 73.7598 21.8584C76.5003 21.8584 79.1087 20.7353 80.8917 18.8194L79.2738 16.0116Z" fill="white"/>
<path d="M99.3813 16.0116C98.1266 17.7293 96.1125 18.7203 94.0324 18.7203C93.9994 18.7203 94.0654 18.7203 94.0324 18.7203C92.3815 18.6872 90.9947 18.1918 90.1362 17.2668C89.3108 16.3749 88.8816 15.0866 88.9476 13.468L102.848 13.402L102.947 13.1377C103.145 12.6092 103.509 11.6182 103.707 10.5281C104.103 8.08364 103.641 6.00256 102.32 4.45001C101.065 2.96352 99.1171 2.1377 96.938 2.1377C90.8296 2.1377 85.8109 7.05961 85.4477 13.3359C85.3156 15.6812 85.976 17.7293 87.3627 19.2158C88.8485 20.8344 91.1598 21.7263 93.8673 21.7923C93.9663 21.7923 93.7682 21.7923 93.8673 21.7923C95.9804 21.7923 99.0181 20.9335 101.032 18.7863L99.3813 16.0116ZM100.207 10.5611L89.4759 10.5281C90.5325 7.48904 92.9758 5.5401 96.0795 5.27583C96.2446 5.27583 96.4097 5.2428 96.5748 5.2428C97.8955 5.2428 98.9851 5.70527 99.6454 6.53109C100.372 7.48905 100.57 8.87643 100.207 10.5611Z" fill="white"/>
<path d="M60.1556 3.72394C58.8679 2.66689 57.0519 2.17139 54.6086 2.17139C53.9813 2.17139 52.7596 2.17139 51.5709 2.17139C50.4813 2.17139 48.8304 2.17139 48.3682 2.17139H47.8399L49.7219 5.37559H54.1794C55.7312 5.37559 56.9199 5.67288 57.6463 6.23444C58.3396 6.79601 58.7028 7.62184 58.7028 8.6789C58.7028 8.91013 58.6698 9.17439 58.6368 9.47169C58.6038 9.76898 58.5377 10.0332 58.4717 10.2645V10.2975C57.6793 10.0663 56.7878 9.90111 55.8633 9.70291C54.7407 9.50471 53.552 9.40562 52.2973 9.40562C51.0757 9.40562 49.9531 9.57078 48.9295 9.86808C47.9059 10.1984 46.9814 10.6609 46.222 11.2224C45.4626 11.817 44.8353 12.5768 44.406 13.4356C43.9768 14.2945 43.7787 15.2855 43.7787 16.3425C43.7787 17.2344 43.9438 18.0272 44.307 18.6879C44.6372 19.3486 45.0994 19.9432 45.6937 20.3726C46.255 20.835 46.9154 21.1654 47.6418 21.3966C48.3682 21.6278 49.1606 21.76 49.9531 21.76C51.1747 21.76 52.3304 21.5287 53.3539 21.0993C53.9482 20.8681 55.4341 19.9432 56.3255 19.3486L57.5142 21.3636H58.901L61.7735 10.793C61.8726 10.4627 61.9386 10.0993 61.9716 9.76898C61.9716 9.66988 62.0046 9.57079 62.0046 9.47169C62.0707 9.04226 62.1037 8.5798 62.1037 8.1834C62.1697 6.30052 61.4764 4.781 60.1556 3.72394ZM57.4812 14.0302C57.4482 14.1624 56.4576 17.6639 51.637 18.6879C51.637 18.6879 51.1087 18.82 50.3493 18.82C49.788 18.82 49.2927 18.754 48.8305 18.6218C48.4673 18.5227 48.2031 18.3576 47.972 18.1924C47.3777 17.6969 47.0805 17.0032 47.0805 16.1443C47.0805 15.6158 47.2126 15.0543 47.4767 14.5588C47.7078 14.0963 48.2691 13.6008 48.6984 13.3035C49.0946 13.0062 49.5899 12.7419 50.2832 12.5107C50.9106 12.3125 51.604 12.2134 52.3964 12.2134C53.486 12.2134 54.5426 12.2795 55.5331 12.4447C56.3586 12.5768 57.085 12.7089 57.7783 12.9071L57.4812 14.0302Z" fill="white"/>
<path d="M168.917 5.83933L167.96 9.40689H178.328L177.106 13.8663H166.738L165.682 17.7312H177.37L176.115 22.3558H158.583L164.295 1.28076H180.507L179.252 5.87236H168.917V5.83933Z" fill="white"/>
<path d="M159.209 1.24463L153.497 22.3197H148.644L141.842 10.7581L138.705 22.3197H132.861L138.573 1.24463H143.46L150.229 12.7401L153.332 1.24463H159.209Z" fill="white"/>
<path d="M108.163 13.5011C108.691 6.16776 114.47 0.816406 122.229 0.816406C128.733 0.816406 132.464 4.64824 132.101 10.1317C131.573 17.4651 125.795 22.8164 118.036 22.8164C111.531 22.7834 107.8 18.9515 108.163 13.5011ZM125.993 10.4621C126.191 7.65425 124.54 5.73833 121.403 5.73833C117.309 5.73833 114.602 9.1077 114.305 13.1047C114.106 15.9125 115.757 17.8284 118.894 17.8284C122.988 17.8284 125.696 14.4591 125.993 10.4621Z" fill="white"/>
</svg>

<svg viewBox="0 0 184 23" fill="none" xmlns="http://www.w3.org/2000/svg"><path d="M37.93 2.57c-.92-.3-2-.43-3.23-.43h-6.28l-.06.3-5.25 19.35h3.53l1.75-6.47h3.83c1.39 0 2.71-.17 3.87-.46a9.4 9.4 0 003.07-1.42 6.32 6.32 0 002.04-2.35c.47-.9.73-1.98.73-3.17 0-1.59-.5-2.88-1.52-3.9a6.01 6.01 0 00-2.48-1.45zm-.92 8.45c-1.06.73-2.6 1.13-4.66 1.13h-3.1l1.82-6.74h3.56c1.49 0 2.55.33 3.17.96.43.43.66.99.66 1.71 0 1.3-.46 2.25-1.45 2.94zM14.76 2.14c-1.03 0-1.99.13-2.88.43-.86.3-1.65.7-2.27 1.19a5.65 5.65 0 00-1.56 1.88 5.22 5.22 0 00-.56 2.34 4.1 4.1 0 001.45 3.27c.47.4 1 .8 1.66 1.13.62.33 1.38.66 2.2.99.54.2.9.4 1.26.6a4.27 4.27 0 011.29.8c.2.18.36.38.46.58.1.2.13.43.13.66 0 .4-.06.73-.23 1.03-.2.33-.43.59-.76.82-.33.23-.85.5-1.22.6-.72.2-1.78.2-2.54.2l-7.03-.04-.86 3.1h8.81c1.06 0 2.02-.13 2.88-.39.86-.26 1.65-.7 2.34-1.22a6.42 6.42 0 001.62-1.92 5.15 5.15 0 00.23-4.26 4.33 4.33 0 00-1.02-1.45c-.43-.43-.96-.8-1.59-1.16-.6-.33-1.32-.66-2.08-.96-.5-.2-.89-.4-1.29-.56-.13-.06-.23-.13-.36-.16a6.72 6.72 0 01-1.12-.66c-.23-.2-.43-.4-.53-.6-.1-.2-.13-.43-.13-.66 0-.3.06-.6.23-.86.16-.3.36-.56.66-.8.3-.22.7-.42 1.12-.59a4.84 4.84 0 011.59-.23h7.33l.86-3.1h-8.1zM79.27 16.01A6.66 6.66 0 0174 18.72c-1.72 0-3.1-.5-4-1.45a5.02 5.02 0 01-1.18-3.83c.23-4.73 3.4-8.13 7.53-8.13 2.17 0 4.09 1.16 4.95 3l.2.43 2.64-1.58.3-.2-.14-.33c-1.25-2.77-4.06-4.46-7.56-4.5h-.1c-6.2 0-10.96 4.76-11.29 11.27a7.75 7.75 0 002.01 5.98c1.52 1.62 3.77 2.48 6.41 2.48a9.77 9.77 0 007.13-3.04l-1.62-2.8zM99.38 16.01a6.65 6.65 0 01-5.35 2.71c-.03 0 .04 0 0 0-1.65-.03-3.04-.53-3.9-1.45a5.12 5.12 0 01-1.18-3.8l13.9-.07.1-.26c.2-.53.56-1.52.76-2.61.4-2.45-.07-4.53-1.39-6.08a6.93 6.93 0 00-5.38-2.31c-6.11 0-11.13 4.92-11.5 11.2a7.76 7.76 0 001.92 5.88c1.49 1.61 3.8 2.5 6.5 2.57.1 0-.1 0 0 0 2.12 0 5.16-.86 7.17-3L99.38 16zm.83-5.45l-10.73-.03a7.53 7.53 0 016.6-5.25c.16 0 .33-.04.5-.04 1.32 0 2.4.47 3.07 1.3.72.95.92 2.34.56 4.02zM60.16 3.72c-1.3-1.05-3.1-1.55-5.55-1.55H47.84l1.88 3.2h4.46c1.55 0 2.74.3 3.47.86.69.57 1.05 1.4 1.05 2.45 0 .23-.03.5-.06.8-.04.29-.1.55-.17.78v.04c-.8-.23-1.68-.4-2.6-.6a20.5 20.5 0 00-3.57-.3c-1.22 0-2.35.17-3.37.47-1.02.33-1.95.8-2.7 1.35a6.54 6.54 0 00-1.82 2.22 6.47 6.47 0 00-.63 2.9c0 .9.16 1.69.53 2.35.33.66.79 1.25 1.38 1.68.57.46 1.23.8 1.95 1.03.73.23 1.52.36 2.31.36a8.8 8.8 0 003.4-.66c.6-.23 2.08-1.16 2.98-1.75l1.18 2.01h1.4l2.86-10.57c.1-.33.17-.7.2-1.02l.03-.3c.07-.43.1-.89.1-1.29a5.23 5.23 0 00-1.94-4.46zm-2.68 10.31c-.03.13-1.02 3.63-5.84 4.66 0 0-.53.13-1.3.13-.55 0-1.05-.07-1.51-.2a2.6 2.6 0 01-.86-.43c-.6-.5-.89-1.19-.89-2.05 0-.52.13-1.09.4-1.58a5.43 5.43 0 012.8-2.05c.63-.2 1.32-.3 2.12-.3 1.09 0 2.14.07 3.13.23.83.14 1.55.27 2.25.47l-.3 1.12zM168.92 5.84l-.96 3.57h10.37l-1.22 4.46h-10.37l-1.06 3.86h11.69l-1.25 4.63h-17.54l5.71-21.08h16.22l-1.26 4.6h-10.33v-.04zM159.2 1.24l-5.7 21.08h-4.86l-6.8-11.56-3.13 11.56h-5.85l5.71-21.08h4.89l6.77 11.5 3.1-11.5h5.88zM108.16 13.5C108.7 6.17 114.47.82 122.23.82c6.5 0 10.23 3.83 9.87 9.31-.53 7.34-6.3 12.69-14.06 12.69-6.5-.04-10.24-3.87-9.88-9.32zM126 10.46c.2-2.8-1.45-4.72-4.59-4.72-4.1 0-6.8 3.37-7.1 7.36-.2 2.81 1.46 4.73 4.6 4.73 4.09 0 6.8-3.37 7.1-7.37z" fill="#fff"/></svg>
